X:101
T:Welch's. ThoH.101
Q:1/2=100
M:C
L:1/8
B:Thompson's Compleat Collection of 120 Favourite Hornpipes.
Z:Village Music Project, Simon Wilson 2016
O:England.
K:Bb
FE|D2B,2B2d2|cBAGF2B2|F2ED EGFE|DCB,4F2|EGBG DFBF|BdcBA2f2|AF=EF DBAG|F6:|
|:cB|A2c2F2f2|d2f2B2A2|G2ed cBAG|T^F3=ED4|GBAG AcBA|Bdgb {a}g2fe|d^FGAB2TA2|G6GF|
E2G2C2c2|AF=EF AFEF|D2F2B,2B2|GEDE GEDE|A2c2F2f2|dfgab2ag|fABeTd2c2|B6:|

